X:1
T:Breathe on Me, Breath of God
T:Text: Edwin Hatch (1835-1889), alt. Tune: Robert Jackson (1842-1914)
T:SM TRENTHAM www.hymnary.orgtext/breathe_on_me_breath_of_god
T:Breathe on Me, Breath of God
T:This hymn is in the public domain.  You may freely use this score for personal and congregational worship.  If you reproduce the score, please credit Hymnary.org as the source. 
T:This hymn is in the public domain.  You may freely use this score for personal and congregational worship.  If you reproduce the score, please credit Hymnary.org as the source. 
Z:This hymn is in the public domain.  You may freely use this score for personal and congregational worship.  If you reproduce the score, please credit Hymnary.org as the source.
%%score ( 1 2 ) ( 3 4 )
L:1/8
M:3/4
K:Eb
V:1 treble nm="Piano" snm="Pno."
V:2 treble 
V:3 bass nm="Piano" snm="Pno."
V:4 bass 
V:1
 [EG]2 [EG]2 [EG]2 | [EA]4 E2 | [EG]6 | [EB]2 [DA]2 [EG]2 | F4 [EG]2 | [DF]6 | [EG]2 [EA]2 [Dc]2 | %7
w: 3~Breathe on me,|breath of|God,|so that your|will is|mine,|un- til this|
w: 1~Breathe on me,|breath of|God,|fill me with|life a-|new,|that I may|
w: 2~Breathe on me,|breath of|God,|un- til my|heart is|pure,|un- til with|
 [EB]4 G2 | [CG]4 [CF]2 | [CA]4 [CF]2 | (E2 D2) [B,E]2 | [EG]4 [DF]2 | E6 |] %13
w: earth- ly|part of|me glows|with _ your|fire di-|vine.|
w: love what-|e'er you|love, and|do _ what|you would|do.|
w: you I|will one|will, to|do _ and|to en-|dure.|
V:2
 x6 | x4 E2 | x6 | x6 | E4 x2 | x6 | x6 | x4 ED | x6 | x6 | B,4 x2 | x6 | E6 |] %13
V:3
 [E,B,]2 [E,E]2 [E,D]2 | [E,C]4 [E,_C]2 | [E,B,]6 | [G,B,]2 [F,B,]2 [E,B,]2 | [A,,C]4 [=A,,C]2 | %5
 [B,,B,]6 | [E,B,]2 [E,C]2 [F,A,]2 | G,4 [E,B,]2 | [A,,B,]4 [A,,A,]2 | [F,,A,]4 [A,,A,]2 | %10
 (G,2 F,2) [B,,G,]2 | [B,,B,]4 [B,,A,]2 | [E,G,]6 |] %13
V:4
 x6 | x6 | x6 | x6 | x6 | x6 | x6 | G,4 x2 | x6 | x6 | B,,4 x2 | x6 | x6 |] %13

